svgs/thin/hand-point-left.svg

<svg xmlns="http://www.w3.org/2000/svg" viewBox="0 0 512 512"><!-- Font Awesome Pro 6.0.0-alpha2 by @fontawesome - https://fontawesome.com License - https://fontawesome.com/license (Commercial License) --><path d="M309.977 252.422C315.551 254.691 321.619 256 328 256C354.469 256 376 234.469 376 208V160C376 155.594 372.422 152 368 152S360 155.594 360 160V208C360 225.656 345.641 240 328 240S296 225.656 296 208V120C296 97.938 313.938 80 336 80H414.922C429 80 441.969 87.656 448.766 100L483.859 163.625C491.797 178 496 194.312 496 210.75V338.688C496 389.875 454.359 431.75 403.156 432H376C371.578 432 368 435.594 368 440S371.578 448 376 448H403.203C463.219 447.688 512 398.656 512 338.688V210.75C512 191.625 507.109 172.625 497.859 155.875L462.766 92.25C453.156 74.844 434.828 64 414.922 64H336C307.863 64 284.73 84.932 280.809 112H48C21.531 112 0 133.531 0 160S21.531 208 48 208H148.484C140.809 216.512 136 227.662 136 240C136 262.854 152.082 281.953 173.504 286.764C165.182 295.398 160 307.086 160 320C160 342.9 176.143 362.041 197.629 366.803C189.328 375.436 184.156 387.105 184.156 400C184.156 426.469 205.688 448 232.156 448H303.953C330.422 448 351.953 426.469 351.953 400C351.953 377.105 335.814 357.969 314.336 353.201C322.641 344.568 327.812 332.896 327.812 320C327.812 299.352 314.639 281.865 296.311 275.104C302.836 269.059 307.592 261.254 309.977 252.422ZM232.156 368H303.953C321.594 368 335.953 382.344 335.953 400S321.594 432 303.953 432H232.156C214.516 432 200.156 417.656 200.156 400S214.516 368 232.156 368ZM208 288H279.812C297.453 288 311.812 302.344 311.812 320S297.453 352 279.812 352H208C190.359 352 176 337.656 176 320S190.359 288 208 288ZM280 128V194.953C274.85 193.1 269.438 192 263.812 192H48C30.359 192 16 177.656 16 160S30.359 128 48 128H280ZM263.812 272H184C166.359 272 152 257.656 152 240S166.359 208 184 208H263.812C269.842 208 275.469 209.965 280.516 213.098C281.773 224.795 287.092 235.227 295.23 242.879C293.701 259.119 280.434 272 263.812 272Z"/></svg>

<svg xmlns="http://www.w3.org/2000/svg" viewBox="0 0 512 512"><!--! Font Awesome Pro 6.3.0 by @fontawesome - https://fontawesome.com License - https://fontawesome.com/license (Commercial License) Copyright 2023 Fonticons, Inc. --><path d="M309.1 252.4C315.6 254.7 321.6 256 328 256c26.47 0 48-21.53 48-48V160c0-4.406-3.578-8-8-8S360 155.6 360 160v48c0 17.66-14.36 32-32 32s-32-14.34-32-32V120c0-22.06 17.94-40 40-40h78.92c14.08 0 27.05 7.656 33.84 20l35.09 63.63C491.8 178 496 194.3 496 210.8v127.9c0 51.19-41.64 93.06-92.84 93.31H376c-4.422 0-8 3.594-8 8S371.6 448 376 448h27.2C463.2 447.7 512 398.7 512 338.7V210.8c0-19.12-4.891-38.13-14.14-54.88l-35.09-63.63C453.2 74.84 434.8 64 414.9 64H336c-28.14 0-51.27 20.93-55.19 48H48C21.53 112 0 133.5 0 160s21.53 48 48 48h100.5C140.8 216.5 136 227.7 136 240c0 22.85 16.08 41.95 37.5 46.76C165.2 295.4 160 307.1 160 320c0 22.9 16.14 42.04 37.63 46.8C189.3 375.4 184.2 387.1 184.2 400c0 26.47 21.53 48 48 48h71.8c26.47 0 48-21.53 48-48c0-22.89-16.14-42.03-37.62-46.8C322.6 344.6 327.8 332.9 327.8 320c0-20.65-13.17-38.13-31.5-44.9C302.8 269.1 307.6 261.3 309.1 252.4zM232.2 368h71.82c17.64 0 31.98 14.34 31.98 32s-14.36 32-32 32H232.2c-17.64 0-32-14.34-32-32S214.5 368 232.2 368zM208 288h71.91c17.64 0 31.91 14.34 31.91 32s-14.27 32-31.91 32H208c-17.64 0-32-14.34-32-32S190.4 288 208 288zM280 128v66.95C274.8 193.1 269.4 192 263.8 192H48c-17.64 0-32-14.34-32-32s14.36-32 32-32H280zM263.8 272H184c-17.64 0-32-14.34-32-32s14.36-32 32-32h79.81c6.029 0 11.66 1.965 16.7 5.098c1.258 11.7 6.576 22.13 14.71 29.78C293.7 259.1 280.4 272 263.8 272z"/></svg>
